X:38
T:Mille regretz
C:Tielman Susato
B:Tielman Susato: Danserye (1551) no. 38
R:Pavane
Z:Transcribed by Frank Nordberg - http://www.musicaviva.com
F:http://abc.musicaviva.com/tunes/susato-tielman/susato-1551-38.abc
%Posted September 4th 2001 at abcusers by Frank Nordberg
M:4/2
L:1/2
K:Am
V:1
E4|A2A2|G3F/E/|DCD2|Cccc|B2A>B|c>BA2|^G2z2:|
|:c2BA|GAAA|GEF2|E2zB|c2A2|B2e2|dcBA|^G2z2.|
|:E2GG|Dddd|c2B2|AAAA|G2F2|EEGE|G2E>F|G2z2:|
V:2
B,4|A,2D2|B,3A,|B,CA,2|C>DEF|G2F2|EE>CD|E2z2:|
|:G2GE|EEFD|EED2|G,2G,2|A,C>B,A,|G,G,C>B,|A,G,GE|E2z2:|
|:G,2G,G,|D>EFG|E2E2|EFFF|E2D2|CCB,C|B,2C2|B,2z2:|
V:3
E4|C2F2|E3D/C/|B,EFD|E3C|DEC2|A,B,CA,|B,2z2:|
|:E2DC|B,CCA,|B,C2B,|C2B,2|E2E2|E3E|FEDC|B,2z2:|
|:C2B,G,|B,>CDB,|CA,2G,|A,CCC|C2A,>B,|CA,G,A,|G,2A,2|G,2z2:|
V:4
E,4|F,2D,2|E,3F,|G,A,D,2|A,2A,A,|G,E,F,>G,|A,G,F,2|E,2z2:|
|:C,2G,A,|E,A,,F,F,|E,C,D,2|C,2E,2|A,,2A,,2|E,2C,2|D,E,G,A,|E,2z2:|
|:C,2E,>F,|G,G,D,G,|A,2E,2|A,,F,F,F,|C,2D,2|A,,A,,E,A,,|E,2A,,2|E,2z2:|
W:
W:
W:  From Musica Viva - http://www.musicaviva.com
W:  the Internet center for free sheet music downloads.
